X:24
T:Muieira de Lugo
R:muieira
C:Trad.
B:Xose Luis Foxo- Os segredos da Gaita
O:Galicia (Spain)
Z:Transcrito por Antonio-Nil
M:6/8
K:AMix
dc |:A4dc|A4dc|A>BA G>FG| B2A2dc| A4dc| A4dc| A>BA G>FE |1 D4dc :|2 D3F2F||
|:F2GA>GF|E3G2G|G2ABAG|F3F2F|F2GA>GF|E3G>AG |F>GF E>FE |1 D3F2F :|2 D2 ||
